T: Fiery Clockface, The
M: 6/8
L: 1/8
K: Dmaj
d2 d D2 E | F2 G A2 B | =c2 c E2 F | G2 A B2 c | d2 d D2 E | F2 G A2 B | Bcd edc | d3- d2 :|f2 f def | g2 f e2 d | c2 B A2 B | c2 d e2 e |f2 f def | g2 f e2 d | c2 c A2 c | d3- d2 :|
